web/workspace/public/assets/icons/colors.svg

<svg xmlns="http://www.w3.org/2000/svg" width="30" height="30" viewBox="0 0 30 30"><path d="M24.907 11.293c.055-.425.093-.854.093-1.293 0-5.522-4.478-10-10-10S5 4.478 5 10c0 .439.038.868.093 1.293C2.055 13.009 0 16.262 0 20c0 5.522 4.478 10 10 10a9.94 9.94 0 0 0 5-1.349A9.94 9.94 0 0 0 20 30c5.522 0 10-4.478 10-10 0-3.738-2.055-6.991-5.093-8.707zM7 10a8 8 0 0 1 16 0c0 .152-.015.301-.022.451A10 10 0 0 0 20 10a9.94 9.94 0 0 0-5 1.349A9.94 9.94 0 0 0 10 10a10 10 0 0 0-2.978.451C7.015 10.301 7 10.152 7 10zm11 10a7.982 7.982 0 0 1-3 6.239A7.982 7.982 0 0 1 12 20c0-.152.015-.301.022-.451.941.293 1.941.451 2.978.451s2.037-.158 2.978-.451c.007.15.022.299.022.451zm-3-2a7.972 7.972 0 0 1-2.615-.446A8.006 8.006 0 0 1 15 13.761a8.006 8.006 0 0 1 2.615 3.793A7.972 7.972 0 0 1 15 18zm-4.419-1.334a8.012 8.012 0 0 1-3.196-4.22 7.946 7.946 0 0 1 5.824.229 9.997 9.997 0 0 0-2.628 3.991zm6.21-3.991a7.946 7.946 0 0 1 5.824-.229 8.017 8.017 0 0 1-3.196 4.22 9.997 9.997 0 0 0-2.628-3.991zM10 28a8 8 0 0 1-8-8 7.99 7.99 0 0 1 3.581-6.666 10.026 10.026 0 0 0 4.512 5.373c-.055.425-.093.854-.093 1.293a9.961 9.961 0 0 0 3.209 7.325A7.946 7.946 0 0 1 10 28zm10 0a7.946 7.946 0 0 1-3.209-.675A9.961 9.961 0 0 0 20 20c0-.439-.038-.868-.093-1.293a10.026 10.026 0 0 0 4.512-5.373A7.99 7.99 0 0 1 28 20a8 8 0 0 1-8 8z"/></svg>

<?xml version="1.0" encoding="iso-8859-1"?>
<!-- Generator: Adobe Illustrator 14.0.0, SVG Export Plug-In . SVG Version: 6.00 Build 43363)  -->
<!DOCTYPE svg PUBLIC "-//W3C//DTD SVG 1.1//EN" "http://www.w3.org/Graphics/SVG/1.1/DTD/svg11.dtd">
<svg version="1.1" id="Layer_1" xmlns="http://www.w3.org/2000/svg" xmlns:xlink="http://www.w3.org/1999/xlink" x="0px" y="0px"
	 width="30px" height="30px" viewBox="0 0 30 30" style="enable-background:new 0 0 30 30;" xml:space="preserve">
<path d="M24.907,11.293C24.962,10.868,25,10.439,25,10c0-5.522-4.478-10-10-10S5,4.478,5,10c0,0.439,0.038,0.868,0.093,1.293
	C2.055,13.009,0,16.262,0,20c0,5.522,4.478,10,10,10c1.823,0,3.528-0.496,5-1.349C16.472,29.504,18.177,30,20,30
	c5.522,0,10-4.478,10-10C30,16.262,27.945,13.009,24.907,11.293z M7,10c0-4.418,3.582-8,8-8s8,3.582,8,8
	c0,0.152-0.015,0.301-0.022,0.451C22.037,10.158,21.037,10,20,10c-1.823,0-3.528,0.496-5,1.349C13.528,10.496,11.823,10,10,10
	c-1.037,0-2.037,0.158-2.978,0.451C7.015,10.301,7,10.152,7,10z M18,20c0,2.524-1.173,4.773-3,6.239c-1.827-1.466-3-3.715-3-6.239
	c0-0.152,0.015-0.301,0.022-0.451C12.963,19.842,13.963,20,15,20s2.037-0.158,2.978-0.451C17.985,19.699,18,19.848,18,20z M15,18
	c-0.917,0-1.795-0.162-2.615-0.446c0.484-1.51,1.406-2.822,2.615-3.793c1.209,0.971,2.131,2.283,2.615,3.793
	C16.795,17.838,15.917,18,15,18z M10.581,16.666c-1.495-0.993-2.637-2.476-3.196-4.22C8.205,12.162,9.083,12,10,12
	c1.143,0,2.227,0.243,3.209,0.675C12.035,13.763,11.127,15.127,10.581,16.666z M16.791,12.675C17.773,12.243,18.857,12,20,12
	c0.917,0,1.795,0.162,2.615,0.446c-0.56,1.744-1.701,3.227-3.196,4.22C18.873,15.127,17.965,13.763,16.791,12.675z M10,28
	c-4.418,0-8-3.582-8-8c0-2.784,1.424-5.233,3.581-6.666c0.812,2.289,2.426,4.195,4.512,5.373C10.038,19.132,10,19.561,10,20
	c0,2.897,1.24,5.499,3.209,7.325C12.227,27.757,11.143,28,10,28z M20,28c-1.143,0-2.227-0.243-3.209-0.675
	C18.76,25.499,20,22.897,20,20c0-0.439-0.038-0.868-0.093-1.293c2.086-1.178,3.7-3.084,4.512-5.373C26.576,14.767,28,17.216,28,20
	C28,24.418,24.418,28,20,28z"/>
</svg>
